X: 2130
T: Polonäs, sexdregasamlingen del 2 nr 20
B: Sexdregasamlingen del 2 nr 20
S: efter Anders Larsson
O: Sexdrega, Västergötland
R: Slängpolska
Z: 2011-11-16 av Nils L
M:3/4
L:1/8
K:D
dd/e/ fd b2 | ag fa e2 | fe/d/ e2 dc | d2 d4 ::
fa ef g2 | fe/d/ e2 A2 | fa ef g2 | fe/d/ e2 dc |
d2 d4 :|
(:musicend:)
(:music:)
